img/Homepage/recoquotes.svg

<svg width="60" height="44" viewBox="0 0 60 44" fill="none" xmlns="http://www.w3.org/2000/svg">
<path d="M19.9464 3.79295C23.2346 7.31243 25 11.2598 25 17.6586C25 28.9183 17.1562 39.0103 5.74958 44L2.89873 39.5669C13.5455 33.7633 15.627 26.2321 16.457 21.4837C14.7427 22.378 12.4984 22.6901 10.2988 22.4842C4.53965 21.9469 -1.6979e-06 17.1824 -1.18012e-06 11.2598C-9.19053e-07 8.2735 1.17721 5.40953 3.27265 3.29791C5.3681 1.1863 8.21014 2.93073e-06 11.1735 3.1898e-06C12.8124 0.0144362 14.432 0.357212 15.9381 1.00838C17.4442 1.65955 18.8067 2.6061 19.9464 3.79295Z" fill="#FDB92D"/>
<path d="M54.9464 3.79295C58.2346 7.31243 60 11.2598 60 17.6586C60 28.9183 52.1562 39.0103 40.7496 44L37.8987 39.5669C48.5455 33.7633 50.627 26.2321 51.457 21.4837C49.7427 22.378 47.4984 22.6901 45.2988 22.4842C39.5396 21.9469 35 17.1824 35 11.2598C35 8.2735 36.1772 5.40953 38.2727 3.29791C40.3681 1.1863 43.2101 2.93073e-06 46.1735 3.1898e-06C47.8124 0.0144362 49.432 0.357212 50.9381 1.00838C52.4442 1.65955 53.8067 2.6061 54.9464 3.79295Z" fill="#FDB92D"/>
</svg>

<svg width="60" height="44" fill="none" xmlns="http://www.w3.org/2000/svg"><path d="M19.946 3.793C23.235 7.313 25 11.26 25 17.659 25 28.919 17.156 39.01 5.75 44l-2.851-4.433c10.646-5.804 12.728-13.335 13.558-18.083-1.714.894-3.959 1.206-6.158 1C4.539 21.947 0 17.182 0 11.26c0-2.986 1.177-5.85 3.273-7.962A11.13 11.13 0 0111.173 0a12.27 12.27 0 014.765 1.008 12.356 12.356 0 014.008 2.785zm35 0C58.235 7.313 60 11.26 60 17.659 60 28.919 52.156 39.01 40.75 44l-2.851-4.433c10.646-5.804 12.728-13.335 13.558-18.083-1.714.894-3.959 1.206-6.158 1C39.539 21.947 35 17.182 35 11.26c0-2.986 1.177-5.85 3.273-7.962A11.13 11.13 0 0146.173 0a12.27 12.27 0 014.765 1.008 12.356 12.356 0 014.008 2.785z" fill="#FDB92D"/></svg>
